app/images/icons/search.svg

<?xml version="1.0" encoding="UTF-8"?>
<svg xmlns="http://www.w3.org/2000/svg" xmlns:xlink="http://www.w3.org/1999/xlink" width="16pt" height="16pt" viewBox="0 0 16 16" version="1.1">
<g id="surface1">
<path style=" stroke:none;fill-rule:nonzero;fill:rgb(0%,0%,0%);fill-opacity:1;" d="M 15.804688 14.863281 L 11.253906 10.3125 C 12.136719 9.222656 12.667969 7.839844 12.667969 6.332031 C 12.667969 2.839844 9.824219 0 6.332031 0 C 2.839844 0 0 2.839844 0 6.332031 C 0 9.824219 2.839844 12.667969 6.332031 12.667969 C 7.839844 12.667969 9.222656 12.136719 10.3125 11.253906 L 14.863281 15.804688 C 14.992188 15.933594 15.164062 16 15.332031 16 C 15.503906 16 15.675781 15.933594 15.804688 15.804688 C 16.066406 15.542969 16.066406 15.121094 15.804688 14.863281 Z M 6.332031 11.332031 C 3.574219 11.332031 1.332031 9.089844 1.332031 6.332031 C 1.332031 3.574219 3.574219 1.332031 6.332031 1.332031 C 9.089844 1.332031 11.332031 3.574219 11.332031 6.332031 C 11.332031 9.089844 9.089844 11.332031 6.332031 11.332031 Z M 6.332031 11.332031 "/>
</g>
</svg>

<svg xmlns="http://www.w3.org/2000/svg" width="16pt" height="16pt" viewBox="0 0 16 16"><path d="M15.805 14.863l-4.551-4.55a6.301 6.301 0 001.414-3.981C12.668 2.84 9.824 0 6.332 0A6.338 6.338 0 000 6.332c0 3.492 2.84 6.336 6.332 6.336 1.508 0 2.89-.531 3.98-1.414l4.551 4.55a.666.666 0 10.942-.94zm-9.473-3.531c-2.758 0-5-2.242-5-5s2.242-5 5-5 5 2.242 5 5-2.242 5-5 5zm0 0"/></svg>
